app/dist/common/images/khd-humboldt-wedag-internati.svg

<svg fill="none" height="18" viewBox="0 0 18 18" width="18" xmlns="http://www.w3.org/2000/svg"><path d="m0 0h18v18h-18z" fill="#f0f3fa"/><g clip-rule="evenodd" fill-rule="evenodd"><path d="m3 6h1v6h-1z" fill="#d00b14"/><path d="m9 6h1v6h-1z" fill="#d00b14"/><path d="m7 6h-1.20306l-1.79694 3h1.20306z" fill="#d00b14"/><path d="m7 12h-1.20306l-1.79694-3h1.20306z" fill="#d00b14"/><path d="m6 9h4v1h-3.37706z" fill="#d00b14"/><path d="m11 6h1.5066c1.3714 0 2.4934 1.30271 2.4934 2.8949v.2102c0 1.5922-1.122 2.8949-2.4934 2.8949h-1.5066v-1h1.3305c.9336 0 1.6695-.916 1.6695-1.99996 0-1.08393-.7359-2.00004-1.6695-2.00004h-1.3305z" fill="#d00b14"/><path d="m11.5951 8c.7469 0 1.4049.44773 1.4049 1 0 .55228-.6055 1-1.3524 1-.2346 0-.4553-.04422-.6476-.12192.1249.02992.2582.04617.3966.04617.7101 0 1.3208-.42568 1.3208-.95075s-.6632-.95075-1.3733-.95075c-.0133 0-.0266.00023-.0398.00051.0937-.01519.191-.02326.2908-.02326z" fill="#2b2b2a"/><path d="m11.0217 8.60004s.7876.31301 1.8853.20868l.093.19131s-1.4698 0-1.9783-.39999z" fill="#2b2b2a"/><path d="m11.3043 9.20001s.5206.16405 1.3485.11078l.0645.08851s-1.0074.02351-1.413-.19929z" fill="#2b2b2a"/><path d="m11.5547 8s.5255.87161-.2504 1.59999c0 0 .7428-.34561.5253-1.5379z" fill="#2b2b2a"/><path d="m11.8696 8.05682s.7573.68323.3949 1.54318c0 0 .4982-.81305-.2097-1.52929z" fill="#2b2b2a"/><path d="m11.3043 8.40803s.55.20818 1.3227-.00807l.0903.14458s-.9537.19114-1.413-.13651z" fill="#2b2b2a"/></g></svg>

<!-- by TradingView --><svg width="18" height="18" viewBox="0 0 18 18" fill="none" xmlns="http://www.w3.org/2000/svg">
<rect width="18" height="18" fill="#F0F3FA"/>
<path fill-rule="evenodd" clip-rule="evenodd" d="M3 6H4V12H3V6Z" fill="#D00B14"/>
<path fill-rule="evenodd" clip-rule="evenodd" d="M9 6H10V12H9V6Z" fill="#D00B14"/>
<path fill-rule="evenodd" clip-rule="evenodd" d="M7 6H5.79694L4 9H5.20306L7 6Z" fill="#D00B14"/>
<path fill-rule="evenodd" clip-rule="evenodd" d="M7 12H5.79694L4 9H5.20306L7 12Z" fill="#D00B14"/>
<path fill-rule="evenodd" clip-rule="evenodd" d="M6 9H10V10H6.62294L6 9Z" fill="#D00B14"/>
<path fill-rule="evenodd" clip-rule="evenodd" d="M11 6H12.5066C13.878 6 15 7.30271 15 8.8949V9.1051C15 10.6973 13.878 12 12.5066 12H11V11H12.3305C13.2641 11 14 10.084 14 9.00004C14 7.91611 13.2641 7 12.3305 7H11V6Z" fill="#D00B14"/>
<path fill-rule="evenodd" clip-rule="evenodd" d="M11.5951 8C12.342 8 13 8.44773 13 9C13 9.55228 12.3945 10 11.6476 10C11.413 10 11.1923 9.95578 11 9.87808C11.1249 9.908 11.2582 9.92425 11.3966 9.92425C12.1067 9.92425 12.7174 9.49857 12.7174 8.9735C12.7174 8.44843 12.0542 8.02275 11.3441 8.02275C11.3308 8.02275 11.3175 8.02298 11.3043 8.02326C11.398 8.00807 11.4953 8 11.5951 8Z" fill="#2B2B2A"/>
<path fill-rule="evenodd" clip-rule="evenodd" d="M11.0217 8.60004C11.0217 8.60004 11.8093 8.91305 12.907 8.80872L13 9.00003C13 9.00003 11.5302 9.00003 11.0217 8.60004Z" fill="#2B2B2A"/>
<path fill-rule="evenodd" clip-rule="evenodd" d="M11.3043 9.20001C11.3043 9.20001 11.8249 9.36406 12.6528 9.31079L12.7173 9.3993C12.7173 9.3993 11.7099 9.42281 11.3043 9.20001Z" fill="#2B2B2A"/>
<path fill-rule="evenodd" clip-rule="evenodd" d="M11.5547 8C11.5547 8 12.0802 8.87161 11.3043 9.59999C11.3043 9.59999 12.0471 9.25438 11.8296 8.06209L11.5547 8Z" fill="#2B2B2A"/>
<path fill-rule="evenodd" clip-rule="evenodd" d="M11.8696 8.05682C11.8696 8.05682 12.6269 8.74005 12.2645 9.6C12.2645 9.6 12.7627 8.78695 12.0548 8.07071L11.8696 8.05682Z" fill="#2B2B2A"/>
<path fill-rule="evenodd" clip-rule="evenodd" d="M11.3043 8.40803C11.3043 8.40803 11.8543 8.61621 12.627 8.39996L12.7173 8.54454C12.7173 8.54454 11.7636 8.73568 11.3043 8.40803Z" fill="#2B2B2A"/>
</svg>
